X: 07058
T: HOWE'S REEL #3
C: Bob McQuillen 18 June 89
B: Bob's Note Book 7 #58
%R: reel
Z: 2020 John Chambers <jc:trillian.mit.edu>
M: C
L: 1/8
K: D
fe \
| dAFA BAFA | defd BAdf | edef gfed | eaab agfe |
| dAFA BAFA | dfdA BAdf | edef gecd | eddc d2  :|
|: fg \
| a2a2 gfef | gfed cAde | fdfg fdfa | gfed e2fg |
| a2a2 gfef | gfed cAde | fdfg faag | fedc d2  :|
%%begintext align
%% Jack Howe has
%% deserved a tune for a long time. He's a great
%% dance enthusiast in the Boston area, and now
%% he's well into the calling scene - Best wishes
%% always to you, Jack!
%%endtext

%%sep 1 1 500

%%sep 1 1 500

